dist/img/main/asterisks.svg

<svg width="72" height="12" viewBox="0 0 72 12" fill="none" xmlns="http://www.w3.org/2000/svg">
<path d="M6.70001 0.155633L8.05917 4.16196L8.07069 4.1959H8.10652H12.4987L8.94724 6.66716L8.91636 6.68865L8.92845 6.72427L10.2861 10.7263L6.72857 8.25075L6.70001 8.23088L6.67145 8.25075L3.11387 10.7263L4.47157 6.72427L4.48365 6.68865L4.45278 6.66716L0.901314 4.1959H5.29349H5.32933L5.34084 4.16196L6.70001 0.155633Z" fill="#FFD600" stroke="#FAFF01" stroke-width="0.1"/>
<path d="M21.3177 0.155633L22.6768 4.16196L22.6884 4.1959H22.7242H27.1164L23.5649 6.66716L23.534 6.68865L23.5461 6.72427L24.9038 10.7263L21.3462 8.25075L21.3177 8.23088L21.2891 8.25075L17.7315 10.7263L19.0892 6.72427L19.1013 6.68865L19.0705 6.66716L15.519 4.1959H19.9112H19.947L19.9585 4.16196L21.3177 0.155633Z" fill="#FFD600" stroke="#FAFF01" stroke-width="0.1"/>
<path d="M35.9354 0.155633L37.2945 4.16196L37.306 4.1959H37.3419H41.7341L38.1826 6.66716L38.1517 6.68865L38.1638 6.72427L39.5215 10.7263L35.9639 8.25075L35.9354 8.23088L35.9068 8.25075L32.3492 10.7263L33.7069 6.72427L33.719 6.68865L33.6881 6.66716L30.1367 4.1959H34.5288H34.5647L34.5762 4.16196L35.9354 0.155633Z" fill="#FFD600" stroke="#FAFF01" stroke-width="0.1"/>
<path d="M50.553 0.155633L51.9122 4.16196L51.9237 4.1959H51.9595H56.3517L52.8003 6.66716L52.7694 6.68865L52.7815 6.72427L54.1392 10.7263L50.5816 8.25075L50.553 8.23088L50.5245 8.25075L46.9669 10.7263L48.3246 6.72427L48.3367 6.68865L48.3058 6.66716L44.7543 4.1959H49.1465H49.1824L49.1939 4.16196L50.553 0.155633Z" fill="#FFD600" stroke="#FAFF01" stroke-width="0.1"/>
<path d="M65.1707 0.155633L66.5299 4.16196L66.5414 4.1959H66.5772H70.9694L67.4179 6.66716L67.3871 6.68865L67.3991 6.72427L68.7568 10.7263L65.1993 8.25075L65.1707 8.23088L65.1422 8.25075L61.5846 10.7263L62.9423 6.72427L62.9544 6.68865L62.9235 6.66716L59.372 4.1959H63.7642H63.8L63.8115 4.16196L65.1707 0.155633Z" fill="#FFD600" stroke="#FAFF01" stroke-width="0.1"/>
</svg>

<svg width="72" height="12" fill="none" xmlns="http://www.w3.org/2000/svg"><path d="M6.7.156l1.36 4.006.01.034h4.43L8.947 6.667l-.03.022.011.035 1.358 4.002L6.73 8.251 6.7 8.23l-.029.02-3.557 2.475 1.358-4.002.012-.035-.031-.022L.9 4.196h4.43l.012-.034L6.7.156zm14.618 0l1.359 4.006.011.034h4.428l-3.551 2.471-.031.022.012.035 1.358 4.002-3.558-2.475-.028-.02-.029.02-3.558 2.475 1.358-4.002.012-.035-.03-.022-3.552-2.471h4.428l.012-.034L21.318.156zm14.617 0l1.36 4.006.011.034h4.428l-3.551 2.471-.031.022.012.035 1.358 4.002-3.558-2.475-.029-.02-.028.02-3.558 2.475 1.358-4.002.012-.035-.03-.022-3.552-2.471h4.428l.011-.034 1.36-4.006zm14.618 0l1.36 4.006.01.034h4.43L52.8 6.667l-.03.022.011.035 1.358 4.002-3.557-2.475-.029-.02-.028.02-3.558 2.475 1.358-4.002.012-.035-.031-.022-3.552-2.471h4.428l.012-.034L50.553.156zm14.617 0l1.36 4.006.011.034h4.428l-3.551 2.471-.03.022.011.035 1.358 4.002-3.558-2.475-.028-.02-.029.02-3.557 2.475 1.357-4.002.012-.035-.03-.022-3.552-2.471H63.8l.012-.034L65.17.156z" fill="#FFD600" stroke="#FAFF01" stroke-width=".1"/></svg>
